public/design_8/images/logo.svg

<svg width="129" height="40" viewBox="0 0 129 40" fill="none" xmlns="http://www.w3.org/2000/svg">
<path d="M32.2301 32V10.144H46.7581V13.824H36.6461V19.136H44.8381V22.752H36.6461V28.32H46.7581V32H32.2301ZM49.8551 32V10.144H58.2071C59.9138 10.144 61.3431 10.3893 62.4951 10.88C63.6684 11.3493 64.6071 12.0427 65.3111 12.96C66.0151 13.8773 66.5164 14.9867 66.8151 16.288C67.1351 17.5893 67.2951 19.072 67.2951 20.736C67.2951 22.4213 67.1458 23.9467 66.8471 25.312C66.5698 26.6773 66.0898 27.8613 65.4071 28.864C64.7244 29.8667 63.8071 30.6453 62.6551 31.2C61.5031 31.7333 60.0631 32 58.3351 32H49.8551ZM54.2711 28.288H58.0791C59.0818 28.288 59.8924 28.096 60.5111 27.712C61.1298 27.328 61.5991 26.7947 61.9191 26.112C62.2604 25.408 62.4844 24.608 62.5911 23.712C62.7191 22.7947 62.7831 21.8027 62.7831 20.736C62.7831 19.712 62.7191 18.784 62.5911 17.952C62.4631 17.0987 62.2284 16.3733 61.8871 15.776C61.5671 15.1573 61.0978 14.688 60.4791 14.368C59.8818 14.0267 59.0818 13.856 58.0791 13.856H54.2711V28.288Z" fill="#087ED8"/>
<path d="M77.6771 32.352C76.8664 32.352 75.9811 32.2987 75.0211 32.192C74.0611 32.1067 73.1224 32 72.2051 31.872C71.3091 31.7227 70.5411 31.5947 69.9011 31.488L70.1891 28C70.8504 28.0853 71.6184 28.1813 72.4931 28.288C73.3678 28.3733 74.2318 28.448 75.0851 28.512C75.9598 28.576 76.7171 28.608 77.3571 28.608C78.5731 28.608 79.4584 28.3733 80.0131 27.904C80.5678 27.4133 80.8451 26.656 80.8451 25.632C80.8451 25.0773 80.7278 24.64 80.4931 24.32C80.2798 23.9787 79.8851 23.712 79.3091 23.52C78.7331 23.3067 77.9331 23.104 76.9091 22.912C75.2024 22.592 73.8158 22.1973 72.7491 21.728C71.7038 21.2587 70.9358 20.5973 70.4451 19.744C69.9758 18.8907 69.7411 17.7493 69.7411 16.32C69.7411 14.656 70.0504 13.3547 70.6691 12.416C71.2878 11.456 72.1731 10.7733 73.3251 10.368C74.4771 9.96266 75.8318 9.76 77.3891 9.76C78.0931 9.76 78.8931 9.80267 79.7891 9.888C80.7064 9.952 81.6024 10.0373 82.4771 10.144C83.3731 10.2507 84.1304 10.368 84.7491 10.496L84.5571 14.016C83.9171 13.9307 83.1704 13.856 82.3171 13.792C81.4851 13.7067 80.6531 13.632 79.8211 13.568C79.0104 13.504 78.3171 13.472 77.7411 13.472C76.5251 13.472 75.6291 13.664 75.0531 14.048C74.4771 14.432 74.1891 15.0507 74.1891 15.904C74.1891 16.544 74.3171 17.0347 74.5731 17.376C74.8291 17.7173 75.2558 17.9947 75.8531 18.208C76.4718 18.4213 77.3144 18.6453 78.3811 18.88C79.6398 19.1573 80.7064 19.456 81.5811 19.776C82.4771 20.096 83.1918 20.48 83.7251 20.928C84.2798 21.376 84.6851 21.952 84.9411 22.656C85.1971 23.36 85.3251 24.2453 85.3251 25.312C85.3251 27.0187 85.0158 28.3947 84.3971 29.44C83.7998 30.464 82.9251 31.2107 81.7731 31.68C80.6424 32.128 79.2771 32.352 77.6771 32.352ZM92.3224 32.352C90.6584 32.352 89.3997 31.936 88.5464 31.104C87.7144 30.2507 87.2984 28.9707 87.2984 27.264C87.2984 26.0693 87.5117 25.1413 87.9384 24.48C88.365 23.7973 88.9944 23.3067 89.8264 23.008C90.6797 22.688 91.7144 22.496 92.9304 22.432L96.8344 22.08V21.12C96.8344 20.352 96.6424 19.8187 96.2584 19.52C95.8744 19.2 95.309 19.04 94.5624 19.04C93.965 19.04 93.2717 19.0613 92.4824 19.104C91.7144 19.1467 90.9464 19.2 90.1784 19.264C89.4317 19.328 88.781 19.392 88.2264 19.456L88.0984 16.448C88.653 16.32 89.3144 16.192 90.0824 16.064C90.8717 15.9147 91.693 15.7973 92.5464 15.712C93.3997 15.6267 94.189 15.584 94.9144 15.584C96.2797 15.584 97.421 15.7547 98.3384 16.096C99.2557 16.4373 99.949 17.0027 100.418 17.792C100.888 18.56 101.122 19.6053 101.122 20.928V28.256C101.165 28.5547 101.325 28.7893 101.602 28.96C101.88 29.1093 102.2 29.216 102.562 29.28L102.466 32.224C101.954 32.2453 101.453 32.256 100.962 32.256C100.472 32.256 100.056 32.224 99.7144 32.16C99.2237 32.096 98.797 31.968 98.4344 31.776C98.093 31.584 97.8157 31.3813 97.6024 31.168C97.261 31.3173 96.8024 31.488 96.2264 31.68C95.6504 31.872 95.021 32.032 94.3384 32.16C93.677 32.288 93.005 32.352 92.3224 32.352ZM93.3464 29.184C93.7517 29.184 94.1784 29.1413 94.6264 29.056C95.0744 28.9707 95.4904 28.8747 95.8744 28.768C96.2797 28.64 96.5997 28.5227 96.8344 28.416V24.736L93.5704 25.024C92.8664 25.088 92.3544 25.3013 92.0344 25.664C91.7357 26.0053 91.5864 26.496 91.5864 27.136C91.5864 27.776 91.725 28.2773 92.0024 28.64C92.301 29.0027 92.749 29.184 93.3464 29.184ZM105.008 32V9.376H109.264V32H105.008ZM119.408 32.352C117.637 32.352 116.229 32.0533 115.184 31.456C114.16 30.8587 113.424 29.952 112.976 28.736C112.528 27.52 112.304 25.9947 112.304 24.16C112.304 22.176 112.581 20.5547 113.136 19.296C113.712 18.0373 114.544 17.1093 115.632 16.512C116.72 15.8933 118.064 15.584 119.664 15.584C122.032 15.584 123.813 16.1813 125.008 17.376C126.224 18.5707 126.832 20.4587 126.832 23.04L126.64 25.408H116.592C116.613 26.6027 116.858 27.4987 117.328 28.096C117.797 28.6933 118.608 28.992 119.76 28.992C120.421 28.992 121.146 28.9813 121.936 28.96C122.725 28.9173 123.504 28.8747 124.272 28.832C125.061 28.7893 125.733 28.7467 126.288 28.704L126.384 31.68C125.85 31.7653 125.178 31.8613 124.368 31.968C123.557 32.0747 122.714 32.16 121.84 32.224C120.986 32.3093 120.176 32.352 119.408 32.352ZM116.592 22.688H122.576C122.576 21.2373 122.341 20.224 121.872 19.648C121.424 19.072 120.688 18.784 119.664 18.784C118.661 18.784 117.893 19.0827 117.36 19.68C116.848 20.2773 116.592 21.28 116.592 22.688Z" fill="black"/>
<path d="M22.4305 16.9593C19.9329 15.6006 19.1949 15.1953 18.9451 15.0651C18.8424 15.0116 18.7162 14.9459 18.5108 14.9749C16.3618 15.2769 15.0971 15.4557 14.3461 15.5612C9.65689 20.4533 21.4571 18.9637 22.4305 16.9593Z" fill="#0C578F"/>
<path d="M24.0014 1.98849C21.1927 0.464091 20.5873 0.130776 20.4184 0.047922C20.2874 -0.0163097 20.2003 -0.00148036 20.1133 0.0106762C11.2268 1.25091 9.02725 1.55224 8.43097 1.64423C8.00256 1.71027 7.79141 1.8221 7.58691 2.42294C7.10461 3.84061 4.38162 11.9364 0.0485229 24.8095C-0.0815785 25.1971 0.0613697 25.5653 0.341058 25.7175L3.8694 27.6368C3.86078 27.6322 18.3949 8.53978 23.6103 1.92297C23.7409 1.9046 23.8917 1.92883 24.0014 1.98849Z" fill="#0C578F"/>
<path d="M5.96428 25.1698C6.69074 25.5649 6.39355 25.6813 2.09693 37.0714C1.93915 37.4896 2.06123 37.7996 2.2954 37.9538C2.50137 38.0895 3.16145 38.4373 5.89289 39.9233C7.30124 38.275 16.0522 19.9684 5.96428 25.1698Z" fill="#0C578F"/>
<path d="M23.6104 1.92306C24.2031 1.83978 24.549 2.51098 24.2082 3.08337L16.3159 16.3399C15.84 17.1393 16.3045 17.7003 16.8386 17.6252L22.0392 16.8943C22.6691 16.8058 23.0037 17.5602 22.5873 18.1299L6.87809 39.5865C6.26406 40.4252 5.27299 39.8803 5.63933 38.9158L9.77283 28.0325C9.98208 27.4812 9.62859 26.9489 9.10154 27.023L4.26055 27.7033C3.74721 27.7755 3.39484 27.271 3.57684 26.729L11.0912 4.40499C11.3545 3.62266 11.5853 3.61309 12.165 3.53161L23.6104 1.92306Z" fill="#087ED8"/>
</svg>

<svg xmlns="http://www.w3.org/2000/svg" width="129" height="40" fill="none"><path fill="#087ED8" d="M32.23 32V10.144h14.528v3.68H36.646v5.312h8.192v3.616h-8.192v5.568h10.112V32zm17.625 0V10.144h8.352q2.56 0 4.288.736 1.76.705 2.816 2.08t1.504 3.328q.48 1.952.48 4.448 0 2.527-.448 4.576-.416 2.048-1.44 3.552T62.655 31.2q-1.728.8-4.32.8zm4.416-3.712h3.808q1.504 0 2.432-.576a3.67 3.67 0 0 0 1.408-1.6q.511-1.056.672-2.4.192-1.376.192-2.976 0-1.536-.192-2.784-.192-1.28-.704-2.176a3.2 3.2 0 0 0-1.408-1.408q-.895-.512-2.4-.512h-3.808z"/><path fill="#000" d="M77.677 32.352q-1.215 0-2.656-.16a57 57 0 0 1-2.816-.32l-2.304-.384L70.19 28q.992.128 2.304.288 1.313.128 2.592.224 1.312.096 2.272.096 1.824 0 2.656-.704.832-.736.832-2.272 0-.832-.352-1.312-.32-.512-1.184-.8-.864-.32-2.4-.608-2.56-.48-4.16-1.184-1.567-.704-2.304-1.984-.704-1.28-.704-3.424 0-2.496.928-3.904.928-1.44 2.656-2.048t4.064-.608q1.056 0 2.4.128 1.376.097 2.688.256 1.344.16 2.272.352l-.192 3.52q-.96-.128-2.24-.224a99 99 0 0 0-2.496-.224 27 27 0 0 0-2.08-.096q-1.824 0-2.688.576t-.864 1.856q0 .96.384 1.472t1.28.832q.928.32 2.528.672 1.888.416 3.2.896 1.344.48 2.144 1.152.832.672 1.216 1.728t.384 2.656q0 2.56-.928 4.128-.896 1.536-2.624 2.24-1.695.672-4.096.672m14.645 0q-2.496 0-3.776-1.248-1.248-1.28-1.248-3.84 0-1.793.64-2.784.64-1.024 1.888-1.472 1.28-.48 3.104-.576l3.904-.352v-.96q0-1.152-.576-1.6-.576-.48-1.696-.48-.895 0-2.08.064a84 84 0 0 0-2.304.16q-1.12.096-1.952.192l-.128-3.008a33 33 0 0 1 1.984-.384q1.185-.225 2.464-.352a24 24 0 0 1 2.368-.128q2.049 0 3.424.512 1.377.512 2.08 1.696.704 1.152.704 3.136v7.328q.064.448.48.704.417.224.96.32l-.096 2.944q-.768.032-1.504.032-.735 0-1.248-.096a3.8 3.8 0 0 1-1.28-.384 3.8 3.8 0 0 1-.832-.608q-.512.224-1.376.512t-1.888.48q-.991.192-2.016.192m1.024-3.168a7 7 0 0 0 1.28-.128q.672-.128 1.248-.288a9 9 0 0 0 .96-.352v-3.68l-3.264.288q-1.056.096-1.536.64-.448.512-.448 1.472t.416 1.504q.449.544 1.344.544M105.008 32V9.376h4.256V32zm14.4.352q-2.657 0-4.224-.896-1.536-.896-2.208-2.72t-.672-4.576q0-2.976.832-4.864.864-1.889 2.496-2.784 1.632-.928 4.032-.928 3.552 0 5.344 1.792 1.824 1.793 1.824 5.664l-.192 2.368h-10.048q.031 1.792.736 2.688.704.896 2.432.896.991 0 2.176-.032l2.336-.128a91 91 0 0 0 2.016-.128l.096 2.976q-.801.127-2.016.288a44 44 0 0 1-2.528.256q-1.28.128-2.432.128m-2.816-9.664h5.984q0-2.175-.704-3.04-.672-.864-2.208-.864-1.505 0-2.304.896-.768.896-.768 3.008"/><path fill="#0C578F" d="M22.43 16.96c-2.497-1.36-3.235-1.765-3.485-1.895a.65.65 0 0 0-.434-.09l-4.165.586c-4.69 4.892 7.111 3.403 8.084 1.398M24.001 1.988C21.193.464 20.587.131 20.418.048c-.13-.064-.218-.05-.305-.037C11.227 1.25 9.027 1.552 8.431 1.644c-.428.066-.64.178-.844.779C7.105 3.84 4.382 11.936.049 24.809c-.13.388.012.756.292.909l3.528 1.919C3.861 27.632 18.395 8.54 23.61 1.923a.67.67 0 0 1 .391.065M5.964 25.17c.727.395.43.511-3.867 11.901-.158.419-.036.729.198.883.206.136.866.483 3.598 1.97 1.408-1.649 10.16-19.956.071-14.754"/><path fill="#087ED8" d="M23.61 1.923c.593-.083.939.588.598 1.16L16.316 16.34c-.476.8-.011 1.36.523 1.285l5.2-.73c.63-.09.965.665.548 1.235L6.878 39.587c-.614.838-1.605.293-1.239-.671l4.134-10.883c.21-.552-.144-1.084-.671-1.01l-4.841.68c-.514.073-.866-.432-.684-.974L11.09 4.405c.264-.782.494-.792 1.074-.873z"/></svg>
